packages/foundations/assets/icons/functional/images/file/document_32.svg

<svg width="32" height="32" viewBox="0 0 32 32" fill="none" xmlns="http://www.w3.org/2000/svg">
<g clip-path="url(#clip0_2207_3224)">
<path fill-rule="evenodd" clip-rule="evenodd" d="M19.6562 2C20.25 2 20.8125 2.25 21.25 2.6563L25.3437 6.75C25.7812 7.1875 26 7.75 26 8.3438V27.75C26 29 25 30 23.75 30H8.25C7 30 6 29 6 27.75V4.25C6 3 7 2 8.25 2H19.6562ZM18 4H8.25C8.125 4 8 4.125 8 4.25V27.75C8 27.875 8.125 28 8.25 28H23.75C23.875 28 24 27.875 24 27.75V10H19C18.4375 10 18 9.5625 18 9V4ZM20 4.2188V8H23.7813L20 4.2188ZM10 23C10 23.5625 10.4375 24 11 24H21C21.5625 24 22 23.5625 22 23C22 22.4375 21.5625 22 21 22H11C10.4375 22 10 22.4375 10 23ZM10 19C10 19.5625 10.4375 20 11 20H21C21.5625 20 22 19.5625 22 19C22 18.4375 21.5625 18 21 18H11C10.4375 18 10 18.4375 10 19ZM10 15C10 15.5625 10.4375 16 11 16H21C21.5625 16 22 15.5625 22 15C22 14.4375 21.5625 14 21 14H11C10.4375 14 10 14.4375 10 15Z" fill="#1A1C1F"/>
</g>
<defs>
<clipPath id="clip0_2207_3224">
<rect width="32" height="32" fill="white"/>
</clipPath>
</defs>
</svg>

<svg xmlns="http://www.w3.org/2000/svg" width="32" height="32" fill="none"><g clip-path="url(#a)"><path fill="#1A1C1F" fill-rule="evenodd" d="M19.656 2c.594 0 1.157.25 1.594.656l4.094 4.094c.437.438.656 1 .656 1.594V27.75C26 29 25 30 23.75 30H8.25C7 30 6 29 6 27.75V4.25C6 3 7 2 8.25 2zM18 4H8.25a.27.27 0 0 0-.25.25v23.5c0 .125.125.25.25.25h15.5c.125 0 .25-.125.25-.25V10h-5c-.562 0-1-.437-1-1zm2 .219V8h3.781zM10 23c0 .563.438 1 1 1h10c.563 0 1-.437 1-1s-.437-1-1-1H11c-.562 0-1 .438-1 1m0-4c0 .563.438 1 1 1h10c.563 0 1-.437 1-1s-.437-1-1-1H11c-.562 0-1 .438-1 1m0-4c0 .563.438 1 1 1h10c.563 0 1-.437 1-1s-.437-1-1-1H11c-.562 0-1 .438-1 1" clip-rule="evenodd"/></g><defs><clipPath id="a"><path fill="#fff" d="M0 0h32v32H0z"/></clipPath></defs></svg>
